X:1
T:L'ardant desir
T:Nicole Regnes
T:Source : 29 Chansons musicales à 4 parties---Paris---P.Attaignant---1530. Editor : André Vierendeels (13/01/18).
T:L'ardant desir
T:©
T:©
T:©
T:©
C:Nicole Regnes
Z:©
%%score [ 1 [ 2 3 4 ] ]
L:1/8
Q:1/4=120
M:2/2
K:F
V:1 treble nm="Soprano" snm="S"
V:2 treble-8 nm="Alto" snm="A"
V:3 treble-8 nm="Tenor" snm="T"
V:4 bass nm="Bass" snm="B"
V:1
 F8 | A4 G4 | B4 z2 F2 | G3 G B2 B2 | A2 F2 G2 A2- | AGFE DEFG | A2 G4 F2 | G8 | z2 d2 d2 d2 | %9
w: L'ar-|dant de-|sir, que|iay de vous ma|my- * * *|||e,|li- vre mon|
 B4 z2 A2 | A2 A2 GFGA | BABc d2 cB | A2 z A A2 A2 | BA d4 c2 | d8 | z2 A2 A2 A2 | BA d3 ccB/c/ | %17
w: cueur, li-|vre mon cueur _ _ _|_ _ _ _ _ _ _|* en tres gran-|de tri- stes- *|se,|en gran- de|tri- * stes- * * * *|
 d8 | z2 B2 B2 B2 | A4 z2 A2 | c3 c B2 A2- | AG G4 F2 | G8 | z2 B2 B2 B2 | A4 z2 A2 | c3 c B2 A2- | %26
w: se,|car s'il ne|vient par|vo- stre grant lar-|* * ges- *|se,|car s'il ne|vient, par|vo- stre grant lar-|
 AG G4 F2 | G4 z4 |: F8 | A4 G4 | B4 z2 F2 | G3 G B2 B2 | A2 F2 z2 F2 | G3 G B2 B2 | A2 F2 G2 A2- | %35
w: * * ges- *|se,|sans|rien tar-|der faul-|dra fi- ner ma|vi- e, faul-|dra fi- ner ma|vi- e, faul- dra|
 AGFE DEFG | A2 G4 F2 | G8 :| %38
w: _ _ _ _ fi- * * *|ner ma- vi-|e.'a|
V:2
 D8 | C4 E4 | D4 z2 D2 | D3 D G2 F2 | F4 E2 C2 | D8 | z2 D2 D2 D2 | B,2 G,A, B,CDE | F4 z2 G2 | %9
w: L'ar-|dant de-|sir, que|iay de vous ma|my- * *|e,|li- vre mon|cueur, _ _ _ _ _ _|_ li-|
 G2 G2 F3 E | FG E4 DC | D3 E F4 | z2 A2 F2 E2 | D2 B2 A4 | F8 | z2 A2 F2 E2 | D2 B2 A4 | %17
w: vre mon cueur, _|_ _ _ _ _||en tres gran-|de tri- 0-|se,|en gran- de|tri stes- *|
 F4 z2 G2 | G2 G2 F4- | F4 z2 F2 | A2 E2 G2 F2- | F2 D2 D4- | D4 z2 G2 | G2 G2 F4- | F4 z2 F2 | %25
w: se, car|s'il ne vient|_ par|vo- stre grant lar-|* ges- se,|_ car|s'il ne vient|_ par|
 A2 E2 G2 F2- | F2 D2 D4- | D4 z4 |: D8 | C4 E4 | D4 z2 D2 | D3 D G2 F2 | F2 D2 z2 D2 | %33
w: vo- stre grant lar-|* ges- se,|_|sans|rien tar-|der faul-|dra fi- ner ma|vi- e, faul-|
 D3 D G2 F2 | F4 E2 C2 | D8- | D8- |"^#" D8 :| %38
w: dra fi- ner ma|vi- * *|e.|_||
V:3
 A8 | A4 c4 | B4 z2 A2 | B3 B d2 d2 | c2 B4 AG | A2 f3 e d2- | dc B2 A4 | G4 z2 d2 | d2 d2 B4 | %9
w: L'ar-|dant de-|sir que|iay de vous ma|my- * * *|||e, li-|vre mon cueur|
 z2 d2 d2 d2 | cBcd edef | g3 f/e/ d4 | z2 f2 d2 e2 | f2 g2 e4 | d8 | z2 f2 d2 e2 | f2 g2 e4 | d8 | %18
w: li- vre mon|cueur _ _ _ _ _ _ _|_ _ _ _|en tres gran-|de tri- stes-|se,|en gran- de|tri- stes- *|se,|
 z2 d2 d2 d2 | c8 | z2 c2 d3 d | c2 B2 A4 | G8 | z2 d2 d2 d2 | c8 | z2 c2 d3 d | c2 B2 A4 | %27
w: car s'il ne|vient|par vo- stre|grant lar- ges-|se,|car s'il ne|vient|par vo- stre|grant lar- ges-|
 G4 z4 |: A8 | A4 c4 | B4 z2 A2 | B3 B d2 d2 | c2 B2 z2 A2 | B3 B d2 d2 | c2 B4 AG | A2 f3 e d2- | %36
w: se,|sans|rien tar-|der faul-|dra fi- ner ma|vi- e, faul-|dra fi- ner ma|vi- * * *|e, ma _ vi-|
 dc B2 A4 | G8 :| %38
w: |e.|
V:4
 D,8 | F,4 C,4 | G,4 z2 D,2 | G,3 G, G,2 B,2 | F,2 D,2 E,2 F,2- | F,E,D,C, B,,C,D,E, | %6
w: Laar-|dant de-|sir que|iay de vous ma|my- * * *||
 F,2 G,2 D,4 | z2 G,2 G,2 G,2 | D,4 z2 G,2 | G,2 G,2 D,E,F,G, | A,G,A,B, C3 B,/A,/ | G,4 z4 | %12
w: * * e,|li- vre mon|cueur, li-|vre mon cueur _ _ _|_ _ _ _ _ _ _||
 D4 D2 C2 | B,2 G,2 A,4 | D,4 z4 | D4 D2 C2 | B,2 G,2 A,4 |"^#" D,4 z2 G,2 | G,2 G,2 B,3 A, | F,8 | %20
w: en tres gran-|de tri- stes-|se,|en gran- de|tri- stes- *|se, car|s'il ne vient _|_|
 z2 C,2 G,2 D,2 | F,2 G,2 D,4 |"^#" G,4 z2 G,2 | G,2 G,2 B,3 A, | F,8 | z2 C,2 G,2 D,2 | %26
w: par vo- stre|grant lar- ges-|se, car|s'il ne vient _|_|par vo- stre|
 F,2 G,2 D,4 | G,4 z4 |: D,8 | F,4 C,4 | G,4 z2 D,2 | G,3 G, G,2 B,2 | F,2 B,,2 z2 D,2 | %33
w: grant lar- ges-|se,|sans|rien tar-|der faul-|dra fi- ner ma|vi- e, faul-|
 G,3 G, G,2 B,2 | F,2 D,2 E,2 F,2- | F,E,D,C, B,,C,D,E, | F,2 G,2 D,4 | G,8 :| %38
w: dra fi- ner ma|vi- e, faul- dra|_ _ _ _ fi- * * *|ner ma vi-|e.|

